X:1
T:Title
%%score 1 2 3
L:1/8
M:2/2
K:C
V:1 treble nm="Part_1"
V:2 treble-8 nm="Part_2"
V:3 bass nm="Part_3"
V:1
 D8- | D8 | C8 | D8 | F8 | G8 | F8 | E4 F4- | F2 D2 D4- | D4 C4 | D8- | D8 | z8 | A8 | G8 | F8 | %16
 G8 | F8 | E8 | F8 | E4 D4- | D2 B,2 C4 |[M:4/2] D16 ||[M:2/2] D8 | E8 | F6 ED | C4 F4- | F4 E4 | %28
 F4 D4- | D4 C4 | D8 | z4 A4- | A2 G2 F4- | F4 E4 | F4 D4 | z4 E4 | F2 G2 A2 F2 | G3 F D2 E2 | %38
 F4 E4- | E2 D2 D4- | D4 C4 |[M:4/2] D16 ||[M:2/2] A8 | c8 | d8 | A8 | G8 | A8 | A8 | A8 | G8 | %51
 A8 | G8 | F8 | E8 | F8 | D8 | F8 | G8 | D8 | F8 | D8 | C8 | F8 | F8 | E4 F4- | F2 D2 D4 | D4 C4 | %68
[M:4/2] D16 ||[M:2/2] F8 | E4 A4- | A4 B4 | c8 | d8 | c4 A4- | A2 G2 F4 | E4 F4 | G2 F2 E2 D2 | %78
 C4 F4- | F2 E2 E4- | E2 D2 D4- | D4 C4 | D8 | z4 A4- | A8 | G4 E4 | F4 D4- | D2 C2 C4- | C4 B,4 | %89
 C8 | z4 c4- | c2 B2 A4 | G4 E4 | D8 | F4 E4- | E4 D4- | D4 C4 |[M:4/2] D16 ||[M:2/2] A,8 | C8 | %100
 D8 | F8 | G8 | D8 | C8 | F8 | E8 | D8 | E8 | C8 | D8 | z8 | F8 | A8 | G8 | A8 | F8 | G8 | E8 | %119
 F8 | D8 | F8 | G8 | F8 | G8 | A8 | A8 | F8 | G8 | E4 F4- | F2 D2 D4- | D4 C4 |[M:4/2] D16 || %133
[M:2/2] E8 | E8 | F6 ED | C4 D4- | D4 E4 | F8 | E4 A4- | A8 | G4 E4 | F8 | E4 G4- | G2 F2 E4 | %145
 F4 D4 | z4 D4 | C4 F4- | F2 E2 E2 D2 | F4 A4- | A2 G2 F4 | E4 G4- | G2 E2 G4 | F4 D4 | z4 A4- | %155
 A2 G2 F4- | F4 E4 | F4 D4- | D8 | C8 | z4 C4 | D4 F4 | E4 G4- | G4 (3:2:1A6- | (3A2 G2 F2 E4- | %165
 E2 D2 D4- | D4 C4 |[M:4/2] D16 ||[M:2/2] A8 | c8 | d8 | A8 | A8 | G8 | A8 | A8 | A8 | c8 | G8 | %179
 F8 | E8 | F8 | D8 | C8 | E8 | D8 | G8 | A8 | A8 | F8 | G8 | E4 F4- | F2 D2 D4- | D4 C4 | %194
[M:4/2] D16 ||[M:2/2] F8 | E4 A4- | A4 B4 | c4 A4- | A2 B2 c4 | d8 | c4 c4- | c2 B2 A4- | %203
 A2 G2 F4 | E4 G4- | G2 F2 E4- | E2 D2 D4- | D4 C4 | D8 | z4 F4 | E4 G4- | G8 | F4 D4- | D8 | C8 | %215
 z4 F4- | F2 G2 A4 | G4 E4- | E2 F2 G4 | A4 F4- | F2 E2 E4- | E2 D2 D4- | D4 C4 |[M:4/2] D16 |] %224
V:2
[K:F] D8 | F4 G4 | A8 | B8 | A4 d4 | B4 c4 | A6 F2 | G4 A4 | D8 | E8 | D8 | z8 | d8 | c4 d4 | %14
 e4 c4 | d8 | B4 G4 | A4 B4 | c4 A4- | A2 D2 A4- | A2 G2 F4 | E8 |[M:4/2] D16 ||[M:2/2] D8 | C8 | %25
 D8 | F8 | G8 | F8 | E8 | F8 | D8 | A8 | G8 | F8 | G8 | F8 | E4 F4 | D4 C4 | D4 G4 | E8 | %41
[M:4/2] D16 ||[M:2/2] f8 | e8 | f4 d4- | d2 c2 A4 | B4 c4- | c4 F4- | F4 c4- | c4 f4 | e4 c4- | %51
 c4 A4 | B4 c4 | d4 A2 d2- | d2 c2 c2 B2 | d4 A4 | B8 | A4 d4 | B4 G4- | G2 F2 D4- | D4 F4- | %61
 F4 G4 | A8 | z4 D4- | D8 | C4 D4- | D4 F4 | E8 |[M:4/2] D16 ||[M:2/2] A8 | c8 | d8 | A8 | G8 | %74
 A8 | A8 | A8 | G8 | A8 | G8 | F8 | E8 | F8 | D8 | F8 | G8 | D8 | F8 | D8 | C8 | F8 | F8 | E8 | %93
 F8 | D4 G4- | G4 F4 | E8 |[M:4/2] D16 ||[M:2/2] F8 | E8 | D8 | z4 d4 | B4 (3:2:1G6- | %103
 (3:2:2G2 F4 G4 | A8 | z4 A4 | G4 E4 | F4 G4- | G4 A4- | A8 | F4 D4 | D8 | z4 d4 | c4 d4 | e8 | %115
 c4 d4- | d2 A2 d4 | B4 c4- | c2 B2 G4 | A8 | B8 | A4 d4- | d2 c2 c2 B2 | d4 A4 | B4 c4- | c4 d4 | %126
 c4 A4- | A8 | B4 G4 | A8 | F4 G4 | E8 |[M:4/2] D16 ||[M:2/2] A,8 | C8 | D8 | F8 | G8 | D8 | C8 | %140
 F8 | E8 | D8 | E8 | C8 | D8 | F8 | A8 | G8 | A8 | F8 | G8 | E8 | F8 | D8 | F8 | G8 | F8 | G8 | %159
 A8 | A8 | F8 | G8 | E4 F4 | D4 C4 | D4 G4 | E8 |[M:4/2] D16 ||[M:2/2] d8 | e8 | f4 d4- | %171
 d2 c2 A2 B2 | c4 d4 | e8 | c4 f4- | f2 e2 d4- | d2 B2 A4- | A2 B2 c4- | c2 B2 G4 | A4 d4- | %180
 d4 c4 | d4 D4- | D2 F4 G2 | A8 | G4 A4 | B4 G4- | G2 A2 B4 | c4 d4- | d2 c2 A4- | A4 D4 | E4 C4- | %191
 C4 D4 | F4 G4 | E8 |[M:4/2] D16 ||[M:2/2] A8 | c8 | d8 | A8 | A8 | G8 | A8 | A8 | A8 | c8 | G8 | %206
 F8 | E8 | F8 | D8 | C8 | E8 | D8 | G8 | A8 | A8 | F8 | G8 | E8 | F8 | D4 G4 | A4 F4 | E8 | %223
[M:4/2] D16 |] %224
V:3
[K:F] D,8 | B,,8 | A,,8 | G,,8 | D,8 | E,4 C,4 | D,8 | E,4 D,4- | D,8 | A,,8 | z4 A,4 | %11
 F,2 G,4 F,2 | D,8 | F,8 | E,8 | D,8 | E,8 | D,8 | A,,8 | D,8 | C,4 D,4 | A,,8 |[M:4/2] A,16 || %23
[M:2/2] D,8 | A,,8 | A,8 | F,4 D,4 | C,8 | D,8 | A,,8 | D,8 | A,8 | F,8 | C,8 | D,8 | E,4 C,4 | %36
 D,8 | z4 A,4- | A,4 A,,4 | B,,4 D,4 | A,,8 |[M:4/2] A,16 ||[M:2/2] D,8 | A,,8 | D,8- | D,4 F,4 | %46
 E,4 C,4 | F,4 C4 | A,4 F,4 | F,8 | C,8 | F,8 | E,8 | D,8 | A,8 | D,8 | G,8 | D,8 | E,6 F,2 | %59
 G,4 A,4- | A,4 D,4- | D,4 B,,4 | A,,8 | D,4 A,4- | A,4 F,4 | G,4 F,4 | D,8 | A,,8 |[M:4/2] A,16 || %69
[M:2/2] D,8 | A,,8 | D,4 G,,4 | A,,4 C,4 | B,,8 | A,,8 | D,8 | A,,4 D,4 | E,2 D,2 C,2 B,,2 | %78
 A,,4 D,4 | E,4 C,4 | D,8 | A,,8 | D,8 | F,8 | D,8 | E,4 C,4 | D,4 _B,,4- | B,,2 A,,2 F,,4 | G,,8 | %89
 z4 G,4 | A,8- | A,4 F,4 | C,8 | D,8 | z4 C,4- | C,4 D,4 | A,,8 |[M:4/2] A,16 ||[M:2/2] D,8 | %99
 A,,8 | A,8 | D,8 | G,,8 | B,,8 | A,,8 | D,8 | E,4 C,4 | D,4 G,,4 | C,4 A,,4 | A,,8 | z4 A,4 | %111
 F,4 D,4 | D,8 | F,8 | E,8 | F,4 D,4 | D,8 | E,4 C,4- | C,2 D,2 E,4 | D,8 | G,8 | D,8 | E,8 | D,8 | %124
 G,4 C,4 | F,4 D,4 | A,,8 | D,8 | G,,8 | C,4 D,4- | D,4 G,,4 | A,,8 |[M:4/2] A,16 ||[M:2/2] A,8 | %134
 G,8 | F,4 A,4- | A,4 D,4 | B,,4 C,4 | D,3 E, F,4 | G,4 C,4 | D,8 | z4 G,4 | A,8 | G,4 E,4- | %144
 E,2 F,2 G,3 F, | D,4 z4 | _B,,8 | A,,4 D,4 | E,4 C,4 | F,8 | D,8 | C,8 | z4 C,4 | D,8 | F,8 | %155
 D,8 | C,8 | D,8 | B,,8 | A,,8- | A,,8 | D,8 | C,6 D,2 | E,4 D,4- | D,4 A,4 | F,4 D,4 | A,,8 | %167
[M:4/2] A,16 ||[M:2/2] D,8 | A,,8 | D,8 | F,8- | F,8 | E,8 | F,4 D,4 | D,8- | D,4 F,4- | %177
 F,2 E,2 C,4- | C,2 D,2 E,4 | D,8 | A,,8 | D,8 | B,,8 | A,,8 | C,8 | G,,8 | z4 G,4 | F,4 D,4 | %188
 D,8- | D,4 A,4 | G,4 E,4- | E,2 F,2 D,4- | D,4 G,,4 | A,,8 |[M:4/2] A,16 ||[M:2/2] D,8 | A,,8 | %197
 D,4 G,,4 | A,,4 D,4- | D,2 C,2 A,,4 | B,,8 | A,,8- | A,,4 D,4- | D,8 | C,8- | C,8 | z4 D,4 | %207
 A,,8 | D,6 E,2 | F,2 G,2 A,4- | A,4 G,4 | z4 C,4 | D,4 B,,4- | B,,8 | A,,8 | D,8- | D,8 | %217
 E,4 C,4- | C,2 D,2 E,4 | D,8- | D,4 C,4 | A,,4 D,4 | A,,8 |[M:4/2] A,16 |] %224

